src/icons/svg/guide.svg

<?xml version="1.0" encoding="UTF-8" standalone="no"?>
<svg width="128px" height="128px" viewBox="0 0 128 128" version="1.1" xmlns="http://www.w3.org/2000/svg" xmlns:xlink="http://www.w3.org/1999/xlink">
    <!-- Generator: Sketch 40 (33762) - http://www.bohemiancoding.com/sketch -->
    <title>guide</title>
    <desc>Created with Sketch.</desc>
    <defs></defs>
    <g id="Page-1" stroke="none" stroke-width="1" fill="none" fill-rule="evenodd">
        <g id="guide" fill="#000000">
            <path d="M1.48167805,70.1312266 L37.686322,86.3108524 L107.618029,20.8259459 L46.2379707,91.4202079 L92.6726244,110.154511 C93.7915317,110.580291 95.0702829,109.9842 95.4698927,108.792017 L95.4698927,108.706861 L127.998127,0.0479002079 L1.32183415,65.8734304 C0.202926829,66.4695218 -0.196682927,67.8320166 0.28284878,69.0241996 C0.602536585,69.5351351 1.00214634,69.9609148 1.48167805,70.1312266 L1.48167805,70.1312266 Z M46.1580488,127.9521 L64.2204098,107.25921 L46.1580488,99.4248649 L46.1580488,127.9521 L46.1580488,127.9521 Z" id="Shape"></path>
        </g>
    </g>
</svg>

<svg width="128" height="128" xmlns="http://www.w3.org/2000/svg"><path d="M1.482 70.131l36.204 16.18 69.932-65.485-61.38 70.594 46.435 18.735c1.119.425 2.397-.17 2.797-1.363v-.085L127.998.047 1.322 65.874c-1.12.597-1.519 1.959-1.04 3.151.32.511.72.937 1.2 1.107zm44.676 57.821L64.22 107.26l-18.062-7.834v28.527z" fill-rule="evenodd"/></svg>
